recipes/mailbox.org/icon.svg

<svg height="429.53" viewBox="0 0 429.53 429.53" width="429.53" xmlns="http://www.w3.org/2000/svg" xmlns:xlink="http://www.w3.org/1999/xlink"><clipPath id="a"><path d="m0 317.91h1024v388.17001h-1024z" height="100%" width="100%"/></clipPath><path clip-path="url(#a)" d="m39.87 706.09h389.66v-220.92l-154.42 105.28c-10.98 7.49-21.93-.05-21.93-.05l-253.18-174.19v250s0 39.88 39.87 39.88m224.77-165.97 164.88-112.93v-109.28h-389.65s-39.87 0-39.87 39.87v1.09z" fill="#76bc21" transform="translate(0 -297.230011)"/></svg>

<?xml version="1.0" encoding="UTF-8" standalone="no"?>
<!-- Generator: Adobe Illustrator 24.0.2, SVG Export Plug-In . SVG Version: 6.00 Build 0)  -->

<svg
   xmlns:dc="http://purl.org/dc/elements/1.1/"
   xmlns:cc="http://creativecommons.org/ns#"
   xmlns:rdf="http://www.w3.org/1999/02/22-rdf-syntax-ns#"
   xmlns:svg="http://www.w3.org/2000/svg"
   xmlns="http://www.w3.org/2000/svg"
   xmlns:xlink="http://www.w3.org/1999/xlink"
   xmlns:sodipodi="http://sodipodi.sourceforge.net/DTD/sodipodi-0.dtd"
   xmlns:inkscape="http://www.inkscape.org/namespaces/inkscape"
   version="1.1"
   id="Ebene_1"
   x="0px"
   y="0px"
   viewBox="0 0 429.53 429.52999"
   xml:space="preserve"
   sodipodi:docname="Mailbox_org icon.svg"
   width="429.53"
   height="429.53"
   inkscape:version="0.92.3 (2405546, 2018-03-11)"><metadata
   id="metadata19"><rdf:RDF><cc:Work
       rdf:about=""><dc:format>image/svg+xml</dc:format><dc:type
         rdf:resource="http://purl.org/dc/dcmitype/StillImage" /><dc:title></dc:title></cc:Work></rdf:RDF></metadata><defs
   id="defs17" /><sodipodi:namedview
   pagecolor="#ffffff"
   bordercolor="#666666"
   borderopacity="1"
   objecttolerance="10"
   gridtolerance="10"
   guidetolerance="10"
   inkscape:pageopacity="0"
   inkscape:pageshadow="2"
   inkscape:window-width="1296"
   inkscape:window-height="740"
   id="namedview15"
   showgrid="false"
   inkscape:zoom="0.4609375"
   inkscape:cx="99.834402"
   inkscape:cy="245.27599"
   inkscape:window-x="70"
   inkscape:window-y="28"
   inkscape:window-maximized="1"
   inkscape:current-layer="g12"
   fit-margin-top="0" />
<style
   type="text/css"
   id="style2">
	.st0{clip-path:url(#SVGID_2_);fill:#76BC21;}
</style>
<g
   id="g12"
   transform="translate(0,-276.55001)">
	<defs
   id="defs5">
		<rect
   id="SVGID_1_"
   y="317.91"
   width="1024"
   height="388.17001"
   x="0" />
	</defs>
	<clipPath
   id="SVGID_2_">
		<use
   xlink:href="#SVGID_1_"
   style="overflow:visible"
   id="use7"
   x="0"
   y="0"
   width="100%"
   height="100%" />
	</clipPath>
	<path
   class="st0"
   d="M 39.87,706.09 H 429.53 V 485.17 L 275.11,590.45 c -10.98,7.49 -21.93,-0.05 -21.93,-0.05 L 0,416.21 v 250 c 0,0 0,39.88 39.87,39.88 M 264.64,540.12 429.52,427.19 V 317.91 H 39.87 c 0,0 -39.87,0 -39.87,39.87 v 1.09 z"
   clip-path="url(#SVGID_2_)"
   id="path10"
   inkscape:connector-curvature="0"
   style="fill:#76bc21"
   sodipodi:nodetypes="ccccccccccccscc"
   transform="translate(0,-20.680001)" />
</g>
</svg>
